site/static/img/pencil.svg

<svg width="164" height="164" viewBox="0 0 164 164" fill="none" xmlns="http://www.w3.org/2000/svg">
<path fill-rule="evenodd" clip-rule="evenodd" d="M128.78 3.39774L160.489 35.1065L144.589 51.0058L112.899 19.3152L112.192 20.0223L143.882 51.7129L43.5294 152.066L14.5188 159.014L14.5979 158.935L5.06293 149.4L4.91515 149.548L11.9342 120.244L128.78 3.39774ZM4.69899 150.451L2.88312 158.032L2 157.82L11.0809 119.907L11.1108 119.783L11.2014 119.692L128.572 2.32107L128.894 2L129.215 2.32107L161.679 34.7854L161.565 34.8989L161.773 35.1065L161.452 35.4275L44.0809 152.799L43.9902 152.889L43.8656 152.919L5.95267 162L5.74115 161.117L13.5055 159.257L4.69899 150.451ZM89.1645 118.651H158.407V160.196H140.018V154.521H139.11V160.196H130.256V148.164H129.348V160.196H121.402V154.521H120.494V160.196H94.386V154.521H93.4779V160.196H85.078V148.164H84.17V160.196H75.089V154.521H74.1809V160.196H52.8407V161.104H74.1809H75.089H84.17H85.078H93.4779H94.386H120.494H121.402H129.348H130.256H139.11H140.018H158.861H159.315V160.65V118.197V117.743H158.861H89.1645V118.651Z" fill="#F1B2EB"/>
<path d="M160.489 35.1065L161.196 35.8136L161.903 35.1065L161.196 34.3993L160.489 35.1065ZM128.78 3.39774L129.487 2.69063L128.78 1.98353L128.073 2.69063L128.78 3.39774ZM144.589 51.0058L143.882 51.7129L144.589 52.42L145.297 51.7129L144.589 51.0058ZM112.899 19.3152L113.606 18.6081L112.899 17.901L112.192 18.6081L112.899 19.3152ZM112.192 20.0223L111.485 19.3152L110.778 20.0223L111.485 20.7294L112.192 20.0223ZM143.882 51.7129L144.589 52.42L145.297 51.7129L144.589 51.0058L143.882 51.7129ZM43.5294 152.066L43.7623 153.038L44.0369 152.973L44.2365 152.773L43.5294 152.066ZM14.5188 159.014L13.8117 158.307L11.3067 160.812L14.7517 159.987L14.5188 159.014ZM14.5979 158.935L15.305 159.642L16.0121 158.935L15.305 158.228L14.5979 158.935ZM5.06293 149.4L5.77003 148.693L5.06292 147.986L4.35582 148.693L5.06293 149.4ZM4.91515 149.548L3.94266 149.315L3.11757 152.76L5.62226 150.255L4.91515 149.548ZM11.9342 120.244L11.2271 119.536L11.0275 119.736L10.9617 120.011L11.9342 120.244ZM4.69899 150.451L5.40609 149.744L4.14268 148.48L3.72649 150.218L4.69899 150.451ZM2.88312 158.032L2.65019 159.004L3.62268 159.237L3.85562 158.265L2.88312 158.032ZM2 157.82L1.02751 157.587L0.794576 158.56L1.76706 158.793L2 157.82ZM11.0809 119.907L10.1084 119.674L10.1084 119.674L11.0809 119.907ZM11.1108 119.783L10.4037 119.076L10.2041 119.275L10.1383 119.55L11.1108 119.783ZM11.2014 119.692L10.4943 118.985L10.4943 118.985L11.2014 119.692ZM128.572 2.32107L129.28 3.02817L129.28 3.02816L128.572 2.32107ZM128.894 2L129.601 1.29289L128.894 0.585772L128.186 1.29291L128.894 2ZM129.215 2.32107L129.922 1.61396V1.61396L129.215 2.32107ZM161.679 34.7854L162.386 35.4925L163.093 34.7854L162.386 34.0783L161.679 34.7854ZM161.565 34.8989L160.858 34.1918L160.151 34.8989L160.858 35.606L161.565 34.8989ZM161.773 35.1065L162.48 35.8136L163.187 35.1065L162.48 34.3994L161.773 35.1065ZM161.452 35.4275L162.159 36.1346L161.452 35.4275ZM44.0809 152.799L43.3738 152.091L43.3737 152.092L44.0809 152.799ZM43.9902 152.889L44.2232 153.862L44.4978 153.796L44.6974 153.596L43.9902 152.889ZM43.8656 152.919L44.0985 153.892H44.0985L43.8656 152.919ZM5.95267 162L4.98018 162.233L5.21311 163.205L6.18561 162.973L5.95267 162ZM5.74115 161.117L5.50822 160.144L4.53573 160.377L4.76866 161.35L5.74115 161.117ZM13.5055 159.257L13.7385 160.23L15.476 159.813L14.2126 158.55L13.5055 159.257ZM158.407 118.651H159.407V117.651H158.407V118.651ZM89.1645 118.651H88.1645V119.651H89.1645V118.651ZM158.407 160.196V161.196H159.407V160.196H158.407ZM140.018 160.196H139.018V161.196H140.018V160.196ZM140.018 154.521H141.018V153.521H140.018V154.521ZM139.11 154.521V153.521H138.11V154.521H139.11ZM139.11 160.196V161.196H140.11V160.196H139.11ZM130.256 160.196H129.256V161.196H130.256V160.196ZM130.256 148.164H131.256V147.164H130.256V148.164ZM129.348 148.164V147.164H128.348V148.164H129.348ZM129.348 160.196V161.196H130.348V160.196H129.348ZM121.402 160.196H120.402V161.196H121.402V160.196ZM121.402 154.521H122.402V153.521H121.402V154.521ZM120.494 154.521V153.521H119.494V154.521H120.494ZM120.494 160.196V161.196H121.494V160.196H120.494ZM94.386 160.196H93.386V161.196H94.386V160.196ZM94.386 154.521H95.386V153.521H94.386V154.521ZM93.4779 154.521V153.521H92.4779V154.521H93.4779ZM93.4779 160.196V161.196H94.4779V160.196H93.4779ZM85.078 160.196H84.078V161.196H85.078V160.196ZM85.078 148.164H86.078V147.164H85.078V148.164ZM84.17 148.164V147.164H83.17V148.164H84.17ZM84.17 160.196V161.196H85.17V160.196H84.17ZM75.089 160.196H74.089V161.196H75.089V160.196ZM75.089 154.521H76.089V153.521H75.089V154.521ZM74.1809 154.521V153.521H73.1809V154.521H74.1809ZM74.1809 160.196V161.196H75.1809V160.196H74.1809ZM52.8407 160.196V159.196H51.8407V160.196H52.8407ZM52.8407 161.104H51.8407V162.104H52.8407V161.104ZM159.315 161.104V162.104H160.315V161.104H159.315ZM159.315 117.743H160.315V116.743H159.315V117.743ZM89.1645 117.743V116.743H88.1645V117.743H89.1645ZM161.196 34.3993L129.487 2.69063L128.073 4.10485L159.782 35.8136L161.196 34.3993ZM145.297 51.7129L161.196 35.8136L159.782 34.3993L143.882 50.2987L145.297 51.7129ZM112.192 20.0223L143.882 51.7129L145.297 50.2987L113.606 18.6081L112.192 20.0223ZM112.899 20.7294L113.606 20.0223L112.192 18.6081L111.485 19.3152L112.899 20.7294ZM144.589 51.0058L112.899 19.3152L111.485 20.7294L143.175 52.42L144.589 51.0058ZM44.2365 152.773L144.589 52.42L143.175 51.0058L42.8223 151.359L44.2365 152.773ZM14.7517 159.987L43.7623 153.038L43.2965 151.093L14.2858 158.042L14.7517 159.987ZM13.8908 158.228L13.8117 158.307L15.2258 159.722L15.305 159.642L13.8908 158.228ZM4.35582 150.107L13.8908 159.642L15.305 158.228L5.77003 148.693L4.35582 150.107ZM5.62226 150.255L5.77004 150.107L4.35582 148.693L4.20804 148.841L5.62226 150.255ZM10.9617 120.011L3.94266 149.315L5.88764 149.781L12.9067 120.477L10.9617 120.011ZM128.073 2.69063L11.2271 119.536L12.6413 120.951L129.487 4.10485L128.073 2.69063ZM3.72649 150.218L1.91063 157.799L3.85562 158.265L5.67148 150.684L3.72649 150.218ZM3.11606 157.059L2.23294 156.848L1.76706 158.793L2.65019 159.004L3.11606 157.059ZM2.97249 158.053L12.0534 120.14L10.1084 119.674L1.02751 157.587L2.97249 158.053ZM12.0534 120.14L12.0833 120.016L10.1383 119.55L10.1084 119.674L12.0534 120.14ZM11.8179 120.49L11.9086 120.399L10.4943 118.985L10.4037 119.076L11.8179 120.49ZM11.9085 120.399L129.28 3.02817L127.865 1.61396L10.4943 118.985L11.9085 120.399ZM129.28 3.02816L129.601 2.70709L128.186 1.29291L127.865 1.61398L129.28 3.02816ZM128.186 2.70711L128.508 3.02817L129.922 1.61396L129.601 1.29289L128.186 2.70711ZM128.508 3.02817L160.972 35.4925L162.386 34.0783L129.922 1.61396L128.508 3.02817ZM160.972 34.0783L160.858 34.1918L162.273 35.606L162.386 35.4925L160.972 34.0783ZM160.858 35.606L161.066 35.8135L162.48 34.3994L162.273 34.1918L160.858 35.606ZM161.066 34.3993L160.745 34.7204L162.159 36.1346L162.48 35.8136L161.066 34.3993ZM160.745 34.7204L43.3738 152.091L44.788 153.506L162.159 36.1346L160.745 34.7204ZM43.3737 152.092L43.2831 152.182L44.6974 153.596L44.788 153.506L43.3737 152.092ZM43.7573 151.917L43.6326 151.947L44.0985 153.892L44.2232 153.862L43.7573 151.917ZM43.6326 151.947L5.71974 161.028L6.18561 162.973L44.0985 153.892L43.6326 151.947ZM6.92517 161.767L6.71364 160.884L4.76866 161.35L4.98018 162.233L6.92517 161.767ZM5.97408 162.089L13.7385 160.23L13.2726 158.285L5.50822 160.144L5.97408 162.089ZM14.2126 158.55L5.40609 149.744L3.99188 151.158L12.7984 159.964L14.2126 158.55ZM158.407 117.651H89.1645V119.651H158.407V117.651ZM159.407 160.196V118.651H157.407V160.196H159.407ZM140.018 161.196H158.407V159.196H140.018V161.196ZM139.018 154.521V160.196H141.018V154.521H139.018ZM139.11 155.521H140.018V153.521H139.11V155.521ZM140.11 160.196V154.521H138.11V160.196H140.11ZM130.256 161.196H139.11V159.196H130.256V161.196ZM129.256 148.164V160.196H131.256V148.164H129.256ZM129.348 149.164H130.256V147.164H129.348V149.164ZM130.348 160.196V148.164H128.348V160.196H130.348ZM121.402 161.196H129.348V159.196H121.402V161.196ZM120.402 154.521V160.196H122.402V154.521H120.402ZM120.494 155.521H121.402V153.521H120.494V155.521ZM121.494 160.196V154.521H119.494V160.196H121.494ZM94.386 161.196H120.494V159.196H94.386V161.196ZM93.386 154.521V160.196H95.386V154.521H93.386ZM93.4779 155.521H94.386V153.521H93.4779V155.521ZM94.4779 160.196V154.521H92.4779V160.196H94.4779ZM85.078 161.196H93.4779V159.196H85.078V161.196ZM84.078 148.164V160.196H86.078V148.164H84.078ZM84.17 149.164H85.078V147.164H84.17V149.164ZM85.17 160.196V148.164H83.17V160.196H85.17ZM75.089 161.196H84.17V159.196H75.089V161.196ZM74.089 154.521V160.196H76.089V154.521H74.089ZM74.1809 155.521H75.089V153.521H74.1809V155.521ZM75.1809 160.196V154.521H73.1809V160.196H75.1809ZM52.8407 161.196H74.1809V159.196H52.8407V161.196ZM53.8407 161.104V160.196H51.8407V161.104H53.8407ZM74.1809 160.104H52.8407V162.104H74.1809V160.104ZM75.089 160.104H74.1809V162.104H75.089V160.104ZM84.17 160.104H75.089V162.104H84.17V160.104ZM85.078 160.104H84.17V162.104H85.078V160.104ZM93.4779 160.104H85.078V162.104H93.4779V160.104ZM94.386 160.104H93.4779V162.104H94.386V160.104ZM120.494 160.104H94.386V162.104H120.494V160.104ZM121.402 160.104H120.494V162.104H121.402V160.104ZM129.348 160.104H121.402V162.104H129.348V160.104ZM130.256 160.104H129.348V162.104H130.256V160.104ZM139.11 160.104H130.256V162.104H139.11V160.104ZM140.018 160.104H139.11V162.104H140.018V160.104ZM158.861 160.104H140.018V162.104H158.861V160.104ZM159.315 160.104H158.861V162.104H159.315V160.104ZM158.315 160.65V161.104H160.315V160.65H158.315ZM158.315 118.197V160.65H160.315V118.197H158.315ZM158.315 117.743V118.197H160.315V117.743H158.315ZM158.861 118.743H159.315V116.743H158.861V118.743ZM89.1645 118.743H158.861V116.743H89.1645V118.743ZM90.1645 118.651V117.743H88.1645V118.651H90.1645Z" fill="#F1B2EB"/>
</svg>

<svg xmlns="http://www.w3.org/2000/svg" width="164" height="164" fill="none"><path fill="#F1B2EB" fill-rule="evenodd" d="m128.78 3.4 31.7 31.7-15.9 15.9-31.68-31.68-.7.7 31.68 31.7L43.53 152.06 14.52 159l.08-.07-9.54-9.54-.14.15 7.01-29.3L128.78 3.4ZM4.7 150.45l-1.82 7.58-.88-.21 9.08-37.91.03-.13.1-.09L128.56 2.32l.32-.32.33.32 32.46 32.47-.12.1.21.22-.32.32L44.08 152.8l-.09.09-.12.03L5.95 162l-.2-.88 7.76-1.86-8.81-8.8Zm84.46-31.8h69.25v41.55H140v-5.68h-.9v5.68h-8.85v-12.04h-.91v12.04h-7.95v-5.68h-.9v5.68H94.38v-5.68h-.91v5.68h-8.4v-12.04h-.91v12.04h-9.08v-5.68h-.9v5.68H52.83v.9h106.48v-43.36H89.16v.91Z" clip-rule="evenodd"/><path fill="#F1B2EB" d="m160.49 35.1.7.71.71-.7-.7-.71-.71.7ZM128.78 3.4l.7-.7-.7-.72-.7.71.7.7Zm15.8 47.6-.7.71.7.71.72-.7-.71-.71ZM112.9 19.33l.7-.71-.7-.7-.7.7.7.7Zm-.7.7-.72-.7-.7.7.7.7.71-.7Zm31.68 31.7.7.7.72-.7-.71-.71-.7.7ZM43.53 152.06l.23.97.28-.07.2-.2-.71-.7ZM14.52 159l-.7-.7-2.51 2.5 3.44-.82-.23-.98Zm.08-.07.7.7.71-.7-.7-.71-.71.7Zm-9.54-9.54.71-.7-.7-.71-.71.7.7.71Zm-.14.15-.98-.24-.82 3.45 2.5-2.5-.7-.71Zm7.01-29.3-.7-.71-.2.2-.07.27.97.23Zm-7.23 30.2.7-.7-1.26-1.27-.41 1.74.97.23Zm-1.82 7.58-.23.97.97.24.24-.98-.98-.23Zm-.88-.21-.97-.23-.24.97.98.23.23-.97Zm9.08-37.91-.97-.24.97.24Zm.03-.13-.7-.7-.2.2-.07.27.97.23Zm.1-.09-.72-.7.71.7ZM128.56 2.32l.71.7-.7-.7Zm.32-.32.71-.7-.7-.71-.71.7.7.71Zm.33.32.7-.7-.7.7Zm32.46 32.47.7.7.71-.7-.7-.71-.71.7Zm-.12.1-.7-.7-.7.7.7.72.7-.71Zm.21.22.71.7.7-.7-.7-.71-.7.7Zm-.32.32.7.7-.7-.7ZM44.08 152.8l-.7-.7.7.7Zm-.09.09.23.97.28-.06.2-.2-.71-.71Zm-.12.03.23.97-.23-.97ZM5.95 162l-.97.23.23.98.98-.24-.24-.97Zm-.2-.88-.24-.98-.97.24.23.97.97-.23Zm7.76-1.86.23.97 1.74-.42-1.27-1.26-.7.7Zm144.9-40.6h1v-1h-1v1Zm-69.25 0h-1v1h1v-1Zm69.25 41.54v1h1v-1h-1Zm-18.4 0h-1v1h1v-1Zm0-5.68h1v-1h-1v1Zm-.9 0v-1h-1v1h1Zm0 5.68v1h1v-1h-1Zm-8.85 0h-1v1h1v-1Zm0-12.04h1v-1h-1v1Zm-.91 0v-1h-1v1h1Zm0 12.04v1h1v-1h-1Zm-7.95 0h-1v1h1v-1Zm0-5.68h1v-1h-1v1Zm-.9 0v-1h-1v1h1Zm0 5.68v1h1v-1h-1Zm-26.11 0h-1v1h1v-1Zm0-5.68h1v-1h-1v1Zm-.91 0v-1h-1v1h1Zm0 5.68v1h1v-1h-1Zm-8.4 0h-1v1h1v-1Zm0-12.04h1v-1h-1v1Zm-.91 0v-1h-1v1h1Zm0 12.04v1h1v-1h-1Zm-9.08 0h-1v1h1v-1Zm0-5.68h1v-1h-1v1Zm-.9 0v-1h-1v1h1Zm0 5.68v1h1v-1h-1Zm-21.35 0v-1h-1v1h1Zm0 .9h-1v1h1v-1Zm106.47 0v1h1v-1h-1Zm0-43.36h1v-1h-1v1Zm-70.15 0v-1h-1v1h1ZM161.2 34.4 129.49 2.7l-1.42 1.4 31.71 31.71 1.42-1.41Zm-15.9 17.3 15.9-15.9-1.42-1.41-15.9 15.9 1.42 1.41Zm-33.1-31.69 31.68 31.7 1.42-1.42-31.7-31.7-1.4 1.42Zm.7.7.7-.7-1.4-1.41-.72.7 1.42 1.42ZM144.59 51l-31.7-31.7-1.4 1.42 31.69 31.69 1.4-1.41ZM44.24 152.77 144.59 52.42l-1.41-1.41L42.82 151.36l1.42 1.41ZM14.75 160l29.01-6.95-.46-1.95-29.01 6.95.46 1.95Zm-.86-1.76-.08.08 1.42 1.41.07-.08-1.4-1.41Zm-9.53-8.12 9.53 9.53 1.41-1.41-9.53-9.54-1.41 1.42Zm1.26.14.15-.14-1.41-1.42-.15.15 1.41 1.41Zm5.34-30.24-7.02 29.3 1.95.47 7.02-29.3-1.95-.47ZM128.07 2.7 11.23 119.54l1.41 1.41L129.5 4.1l-1.42-1.4ZM3.73 150.22 1.9 157.8l1.95.46 1.81-7.58-1.94-.46Zm-.61 6.84-.89-.21-.46 1.94.88.21.47-1.94Zm-.15 1 9.08-37.92-1.94-.47-9.08 37.92 1.94.46Zm9.08-37.92.03-.12-1.94-.47-.03.12 1.94.47Zm-.23.35.09-.1-1.42-1.4-.09.09 1.42 1.41Zm.09-.1L129.28 3.04l-1.42-1.42L10.5 119l1.42 1.4ZM129.28 3.04l.32-.32-1.41-1.42-.33.32 1.42 1.42Zm-1.1-.32.33.32 1.41-1.42-.32-.32-1.41 1.42Zm.33.32 32.46 32.46 1.42-1.41L129.92 1.6l-1.41 1.42Zm32.46 31.05-.11.11 1.41 1.42.12-.12-1.42-1.41Zm-.11 1.53.2.2 1.42-1.41-.2-.2-1.42 1.4Zm.2-1.21-.31.32 1.4 1.41.33-.32-1.41-1.41Zm-.31.32L43.37 152.09l1.42 1.42L162.16 36.13l-1.41-1.41ZM43.37 152.09l-.09.1 1.42 1.4.09-.08-1.42-1.42Zm.39-.17-.13.03.47 1.94.12-.03-.46-1.94Zm-.13.03-37.91 9.08.47 1.94 37.9-9.08-.46-1.94Zm-36.7 9.82-.22-.89-1.94.47.21.88 1.95-.46Zm-.96.32 7.77-1.86-.47-1.94-7.76 1.85.46 1.95Zm8.24-3.54-8.8-8.8-1.42 1.4 8.8 8.81 1.42-1.41Zm144.2-40.9H89.16v2h69.25v-2Zm1 42.55v-41.55h-2v41.55h2Zm-19.4 1h18.4v-2H140v2Zm-1-6.68v5.68h2v-5.68h-2Zm.1 1h.9v-2h-.9v2Zm1 4.68v-5.68h-2v5.68h2Zm-9.85 1h8.85v-2h-8.85v2Zm-1-13.04v12.04h2v-12.04h-2Zm.09 1h.9v-2h-.9v2Zm1 11.04v-12.04h-2v12.04h2Zm-8.95 1h7.95v-2h-7.95v2Zm-1-6.68v5.68h2v-5.68h-2Zm.1 1h.9v-2h-.9v2Zm1 4.68v-5.68h-2v5.68h2Zm-27.11 1h26.1v-2H94.4v2Zm-1-6.68v5.68h2v-5.68h-2Zm.09 1h.9v-2h-.9v2Zm1 4.68v-5.68h-2v5.68h2Zm-9.4 1h8.4v-2h-8.4v2Zm-1-13.04v12.04h2v-12.04h-2Zm.09 1h.9v-2h-.9v2Zm1 11.04v-12.04h-2v12.04h2Zm-10.08 1h9.08v-2h-9.08v2Zm-1-6.68v5.68h2v-5.68h-2Zm.1 1h.9v-2h-.9v2Zm1 4.68v-5.68h-2v5.68h2Zm-22.35 1h21.34v-2H52.84v2Zm1-.1v-.9h-2v.9h2Zm20.34-1H52.84v2h21.34v-2Zm.9 0h-.9v2h.9v-2Zm9.09 0h-9.08v2h9.08v-2Zm.9 0h-.9v2h.9v-2Zm8.4 0h-8.4v2h8.4v-2Zm.92 0h-.91v2h.9v-2Zm26.1 0H94.4v2h26.1v-2Zm.91 0h-.9v2h.9v-2Zm7.95 0h-7.95v2h7.95v-2Zm.9 0h-.9v2h.9v-2Zm8.86 0h-8.85v2h8.85v-2Zm.9 0h-.9v2h.9v-2Zm18.85 0h-18.84v2h18.84v-2Zm.45 0h-.45v2h.45v-2Zm-1 .55v.45h2v-.45h-2Zm0-42.45v42.45h2V118.2h-2Zm0-.46v.46h2v-.46h-2Zm.55 1h.45v-2h-.45v2Zm-69.7 0h69.7v-2h-69.7v2Zm1-.09v-.9h-2v.9h2Z"/></svg>
